svg/briefcase.svg

<svg xmlns="http://www.w3.org/2000/svg" viewBox="0 0 32 32" enable-background="new 0 0 32 32"><path d="M 16 3 C 14.136251 3 12.600787 4.2754401 12.15625 6 L 4 6 L 3 6 L 3 7 L 3 25 L 3 26 L 4 26 L 28 26 L 29 26 L 29 25 L 29 7 L 29 6 L 28 6 L 19.84375 6 C 19.399213 4.2754401 17.863749 3 16 3 z M 16 5 C 16.810108 5 17.427761 5.3850682 17.75 6 L 14.25 6 C 14.572239 5.3850682 15.189892 5 16 5 z M 5 8 L 27 8 L 27 17 L 5 17 L 5 8 z M 16 14 C 15.447715 14 15 14.447715 15 15 C 15 15.552285 15.447715 16 16 16 C 16.552285 16 17 15.552285 17 15 C 17 14.447715 16.552285 14 16 14 z M 5 19 L 27 19 L 27 24 L 5 24 L 5 19 z" color="#000" overflow="visible" enable-background="accumulate"/></svg>

<svg xmlns="http://www.w3.org/2000/svg" viewBox="0 0 32 32"><path style="text-indent:0;text-align:start;line-height:normal;text-transform:none;block-progression:tb;-inkscape-font-specification:Bitstream Vera Sans" d="M16 3c-1.864 0-3.4 1.275-3.844 3H3v20h26V6h-9.156C19.4 4.275 17.864 3 16 3zm0 2c.81 0 1.428.385 1.75 1h-3.5c.322-.615.94-1 1.75-1zM5 8h22v9H5V8zm11 6c-.552 0-1 .448-1 1s.448 1 1 1 1-.448 1-1-.448-1-1-1zM5 19h22v5H5v-5z" color="#000" overflow="visible" font-family="Bitstream Vera Sans"/></svg>
